X: 10597
T: Dougall's Sustain
R: reel
M: 4/4
K: Amajor
|:AEEc BcdB|A3 g aece|fAaf ecAc|Bg (3ggg bged|
Bc (3ccc BcdB|Aaga ecAE|FA (3AAA GBEB|(3eee Bd cAAB:|
|:e3 e f2 fa|fece fece|d~B3 fBdB|f~g3 gfeg|
~a3e f2 fa|fece fece|de cA BABd|EdFd eAAd:|

